www/assets/icons/hdr_on_select.svg

<svg width="24" height="24" viewBox="0 0 24 24" xmlns="http://www.w3.org/2000/svg" fill='currentColor'><path d="M18 18.5V17.5C18 16.7 17.3 16 16.5 16H13V22H14.5V20H15.6L16.5 22H18L17.1 19.9C17.6 19.6 18 19.1 18 18.5ZM16.5 18.5H14.5V17.5H16.5V18.5ZM3.5 18H1.5V16H0V22H1.5V19.5H3.5V22H5V16H3.5V18ZM10 16H6.5V22H10C10.8 22 11.5 21.3 11.5 20.5V17.5C11.5 16.7 10.8 16 10 16ZM10 20.5H8V17.5H10V20.5ZM24 20H22V22H20.5V20H18.5V18.5H20.5V16.5H22V18.5H24V20ZM12 4C14.21 4 16 5.79 16 8C16 10.21 14.21 12 12 12C9.79 12 8 10.21 8 8C8 5.79 9.79 4 12 4ZM12 2C8.69 2 6 4.69 6 8C6 11.31 8.69 14 12 14C15.31 14 18 11.31 18 8C18 4.69 15.31 2 12 2Z"/></svg>

<svg xmlns="http://www.w3.org/2000/svg" width="24" height="24" viewBox="0 0 24 24" fill='currentColor'><path d="M18 18.5v-1c0-.8-.7-1.5-1.5-1.5H13v6h1.5v-2h1.1l.9 2H18l-.9-2.1c.5-.3.9-.8.9-1.4m-1.5 0h-2v-1h2zm-13-.5h-2v-2H0v6h1.5v-2.5h2V22H5v-6H3.5zm6.5-2H6.5v6H10c.8 0 1.5-.7 1.5-1.5v-3c0-.8-.7-1.5-1.5-1.5m0 4.5H8v-3h2zm14-.5h-2v2h-1.5v-2h-2v-1.5h2v-2H22v2h2zM12 4c2.21 0 4 1.79 4 4s-1.79 4-4 4-4-1.79-4-4 1.79-4 4-4m0-2C8.69 2 6 4.69 6 8s2.69 6 6 6 6-2.69 6-6-2.69-6-6-6"/></svg>
